app/assets/images/heroicons/outline/numbered-list.svg

<svg width="24" height="24" viewBox="0 0 24 24" fill="none" xmlns="http://www.w3.org/2000/svg">
<path d="M8.24185 5.99179H20.2416M8.24118 11.9945H20.2409M8.24185 17.9936H20.2416M4.1157 7.49548V3.74512H2.99072M4.1157 7.49548H2.99072M4.1157 7.49548H5.24068M3.32128 10.0715C3.76061 9.63214 4.4729 9.63214 4.91223 10.0715C5.35157 10.5109 5.35157 11.2233 4.91223 11.6627L3.08285 13.4923L5.24182 13.4925M2.99072 15.7446H4.1156C4.73696 15.7446 5.24068 16.2484 5.24068 16.8697C5.24068 17.4911 4.73696 17.9949 4.1156 17.9949H3.74071M3.74071 17.9928H4.1156C4.73696 17.9928 5.24068 18.4966 5.24068 19.1179C5.24068 19.7393 4.73696 20.243 4.1156 20.243H2.99072" stroke="black" stroke-width="1.5" stroke-linecap="round" stroke-linejoin="round"/>
</svg>

<svg xmlns="http://www.w3.org/2000/svg" fill="none" viewBox="0 0 24 24" stroke-width="1.5" stroke="currentColor" aria-hidden="true" data-slot="icon">
  <path stroke-linecap="round" stroke-linejoin="round" d="M8.242 5.992h12m-12 6.003H20.24m-12 5.999h12M4.117 7.495v-3.75H2.99m1.125 3.75H2.99m1.125 0H5.24m-1.92 2.577a1.125 1.125 0 1 1 1.591 1.59l-1.83 1.83h2.16M2.99 15.745h1.125a1.125 1.125 0 0 1 0 2.25H3.74m0-.002h.375a1.125 1.125 0 0 1 0 2.25H2.99"/>
</svg>
